X:79
T:Paddy Bless the Gumbo
R:reel
C: 1996, 2010 L.E. McCullough  
M:4/4
L:1/8
K:A
AB|:c~e3 cBce|fafe c2AB|c~e3 cBce|=gfeA B2AB|
c~e3 cBce|fafe f2ae|~f3e =gfeg|1 fecB A2AB:|2 fecB A2ce|] 
|:~f3a fece|f~a3 abaf|~e3f ecBA|cefe aece|
~f3a fece|f~a3 b2 ab|1c'~a3 =gfeg|fecB A2ce:|2 c'~a3 bafa|~b3c' b2af|]
<end>
<start>
